!!!OTL: Piano Concerto No. 4 "Incantation"
!!!OMV: I: Poco allegro
!!!example: 505
!!!work: Mau-110
**kern	**dynam	**kern	**dynam	**kern	**dynam	**kern	**kern	**dynam	**kern	**kern	**dynam	**kern	**kern	**dynam	**kern	**dynam	**kern	**dynam	**kern	**kern	**dynam	**kern	**dynam	**kern	**kern	**dynam	**kern	**kern	**dynam	**kern	**kern	**dynam	**kern	**dynam	**kern	**kern	**dynam	**kern	**dynam
*part17	*part17	*part16	*part16	*part15	*part15	*part14	*part14	*part14	*part13	*part13	*part13	*part12	*part12	*part12	*part11	*part11	*part10	*part10	*part9	*part8	*part8	*part7	*part7	*part6	*part6	*part6	*part5	*part5	*part5	*part4	*part4	*part4	*part3	*part3	*part2	*part2	*part2	*part1	*part1
*staff24	*	*staff23	*	*staff22	*	*staff21	*staff20	*	*staff19	*staff18	*	*staff17	*staff16	*	*staff15	*	*staff14	*	*staff13	*staff12	*	*staff11	*	*staff10	*staff9	*	*staff8	*staff7	*	*staff6	*staff5	*	*staff4	*	*staff3	*staff2	*	*staff1	*
*I"Cb.	*	*I"Vel.	*	*I"Vle	*	*I"I. Viol. II.	*	*	*I"Piano solo	*	*	*I"Arpa	*	*	*I"Xil.	*	*I"T. basque	*	*I"Timp.	*I"1. Trbni 2. 3.	*	*I"1. Trbe Do 2.	*	*I"1. 2. Cor.Fa 3. 4.	*	*	*I"1. Fag. 2.	*	*	*I"1. Cl. Do 2.	*	*	*I"1. Ob. 2.	*	*I"1. Fl. 2.	*	*	*I"Fl. picc.	*
*I'Db.	*	*I'Vc.	*	*I'Vla.	*	*I'Vln. I	*	*	*I'Pno.	*	*	*I'Hp.	*	*	*I'Xyl.	*	*I'Ten. Drum	*	*I'Timp.	*I'1. Trbni 2. 3.	*	*I'1. Trbe Do 2.	*	*I'1. 2. Cor. Fa 3. 4.	*	*	*I'1. Fag. 2.	*	*	*I'1. Cl. Do 2.	*	*	*I'1. Ob. 2.	*	*I'1. Fl. 2.	*	*	*I'Picc.	*
!!pagebreak:original
*clefF4	*	*clefF4	*	*clefG2	*	*clefG2	*clefG2	*	*clefF4	*clefG2	*	*clefG2	*clefG2	*	*clefG2	*	*clefpercussion2	*	*clefF4	*clefF4	*	*clefG2	*	*clefG2	*clefG2	*	*clefF4	*clefF4	*	*clefG2	*clefG2	*	*clefG2	*	*clefG2	*clefG2	*	*clefG2	*
*ITrd0c0	*	*	*	*	*	*	*	*	*	*	*	*	*	*	*ITrd0c0	*	*	*	*	*	*	*	*	*ITrd4c7	*ITrd4c7	*	*	*	*	*	*	*	*	*	*	*	*	*ITrd0c0	*
*k[]	*	*k[]	*	*k[]	*	*k[]	*k[]	*	*k[]	*k[]	*	*k[]	*k[]	*	*k[]	*	*k[]	*	*k[]	*k[]	*	*k[]	*	*k[b-]	*k[b-]	*	*k[]	*k[]	*	*k[]	*k[]	*	*k[]	*	*k[]	*k[]	*	*k[]	*
*C:	*	*C:	*	*C:	*	*C:	*C:	*	*C:	*C:	*	*C:	*C:	*	*C:	*	*C:	*	*C:	*C:	*	*C:	*	*F:	*F:	*	*C:	*C:	*	*C:	*C:	*	*C:	*	*C:	*C:	*	*C:	*
*M4/4	*	*M4/4	*	*M4/4	*	*M4/4	*M4/4	*	*M4/4	*M4/4	*	*M4/4	*M4/4	*	*M4/4	*	*M4/4	*	*M4/4	*M4/4	*	*M4/4	*	*M4/4	*M4/4	*	*M4/4	*M4/4	*	*M4/4	*M4/4	*	*M4/4	*	*M4/4	*M4/4	*	*M4/4	*
*MM121	*	*MM121	*	*MM121	*	*MM121	*MM121	*	*MM121	*MM121	*	*MM121	*MM121	*	*MM121	*	*MM121	*	*MM121	*MM121	*	*MM121	*	*MM121	*MM121	*	*MM121	*MM121	*	*MM121	*MM121	*	*MM121	*	*MM121	*MM121	*	*MM121	*
=44	=	=	=	=	=	=	=	=	=	=	=	=	=	=	=	=	=	=	=	=	=	=	=	=	=	=	=	=	=	=	=	=	=	=	=	=	=	=	=
8E-X'^	.	8EE-X'^ 8BB-X 8G	.	8cc#X'^)	.	8gg'^	8ggg'^	.	8r	8r	.	1r	1r	.	1r	.	1r	.	8E-X	1r	.	1r	.	1r	8g#X' 8bX	.	8c#X'	8e'	.	8gg'	8bb-X'	.	8gg'	.	8ggg'	8ggg'	.	1r	.
8r	.	8r	.	8r	.	8r	8r	.	16CC#X'LL 16C#X	16cn'LL 16ccn	f	.	.	.	.	.	.	.	8r	.	.	.	.	.	8r	.	8r	8r	.	8r	8r	.	8r	.	8r	8r	.	.	.
.	.	.	.	.	.	.	.	.	16DD'JJ 16D	16c#X'JJ 16cc#X	.	.	.	.	.	.	.	.	.	.	.	.	.	.	.	.	.	.	.	.	.	.	.	.	.	.	.	.	.
4r	.	4r	.	4r	.	4r	4r	.	16DD#XLL 16D#X	(<16dLL 16dd	.	.	.	.	.	.	.	.	4r	.	.	.	.	.	4r	.	4r	4r	.	4r	4r	.	4r	.	4r	4r	.	.	.
.	.	.	.	.	.	.	.	.	16EE 16E	16d#X 16dd#X)	.	.	.	.	.	.	.	.	.	.	.	.	.	.	.	.	.	.	.	.	.	.	.	.	.	.	.	.	.
.	.	.	.	.	.	.	.	.	16FF' 16F	16e' 16ee	.	.	.	.	.	.	.	.	.	.	.	.	.	.	.	.	.	.	.	.	.	.	.	.	.	.	.	.	.
.	.	.	.	.	.	.	.	.	16FF#X'JJ 16F#X	16f'JJ 16ff	.	.	.	.	.	.	.	.	.	.	.	.	.	.	.	.	.	.	.	.	.	.	.	.	.	.	.	.	.
2r	.	2r	.	2r	.	2r	2r	.	16GG'LL 16G	8f#X'L 8ff#X	.	.	.	.	.	.	.	.	2r	.	.	.	.	.	2r	.	2r	2r	.	2r	2r	.	2r	.	2r	2r	.	.	.
.	.	.	.	.	.	.	.	.	16GG#X' 16G#X	.	.	.	.	.	.	.	.	.	.	.	.	.	.	.	.	.	.	.	.	.	.	.	.	.	.	.	.	.	.
.	.	.	.	.	.	.	.	.	16AA' 16A	16g'L 16gg	.	.	.	.	.	.	.	.	.	.	.	.	.	.	.	.	.	.	.	.	.	.	.	.	.	.	.	.	.
.	.	.	.	.	.	.	.	.	16AA#X'JJ 16A#X	16g#X'JJ 16gg#X	.	.	.	.	.	.	.	.	.	.	.	.	.	.	.	.	.	.	.	.	.	.	.	.	.	.	.	.	.
.	.	.	.	.	.	.	.	.	16BBLL 16B	(>16aLL 16aa	.	.	.	.	.	.	.	.	.	.	.	.	.	.	.	.	.	.	.	.	.	.	.	.	.	.	.	.	.
.	.	.	.	.	.	.	.	.	16C# 16c	16a#X 16aa#X)	.	.	.	.	.	.	.	.	.	.	.	.	.	.	.	.	.	.	.	.	.	.	.	.	.	.	.	.	.
.	.	.	.	.	.	.	.	.	16C#X' 16c#X	16b' 16bb	.	.	.	.	.	.	.	.	.	.	.	.	.	.	.	.	.	.	.	.	.	.	.	.	.	.	.	.	.
.	.	.	.	.	.	.	.	.	16D#'JJ 16d	16cc#'JJ 16ccc	.	.	.	.	.	.	.	.	.	.	.	.	.	.	.	.	.	.	.	.	.	.	.	.	.	.	.	.	.
=45	=45	=45	=45	=45	=45	=45	=45	=45	=45	=45	=45	=45	=45	=45	=45	=45	=45	=45	=45	=45	=45	=45	=45	=45	=45	=45	=45	=45	=45	=45	=45	=45	=45	=45	=45	=45	=45	=45	=45
!	!	!LO:TX:i:t=cantabile	!	!	!	!	!	!	!	!	!	!	!	!	!	!	!	!	!	!	!	!	!	!	!	!	!	!	!	!	!	!	!	!	!	!	!	!	!
!	!	!LO:TX:t=div.	!	!	!	!	!LO:TX:t=col legno div.	!	!	!	!	!	!	!	!	!	!	!	!	!	!	!	!	!	!	!	!	!	!	!	!	!	!	!	!	!	!	!	!
1r	.	1r	.	1r	.	1r	1r	.	16D#X'LL 16d#X	8cc#X'L 8ccc#X	.	1r	1r	.	1r	.	1r	.	1r	1r	.	1r	.	1r	1r	.	1r	1r	.	1r	1r	.	1r	.	1r	1r	.	1r	.
.	.	.	.	.	.	.	.	.	16E' 16e	.	.	.	.	.	.	.	.	.	.	.	.	.	.	.	.	.	.	.	.	.	.	.	.	.	.	.	.	.	.
.	.	.	.	.	.	.	.	.	16F' 16f	16ddn'L 16dddn	.	.	.	.	.	.	.	.	.	.	.	.	.	.	.	.	.	.	.	.	.	.	.	.	.	.	.	.	.
.	.	.	.	.	.	.	.	.	16F#X'JJ 16f#X	16dd#X'JJ 16ddd#X	.	.	.	.	.	.	.	.	.	.	.	.	.	.	.	.	.	.	.	.	.	.	.	.	.	.	.	.	.
*	*	*	*	*	*	*	*	*	*clefG2	*	*	*	*	*	*	*	*	*	*	*	*	*	*	*	*	*	*	*	*	*	*	*	*	*	*	*	*	*	*
*	*	*	*	*	*	*	*	*	*8va	*	*	*	*	*	*	*	*	*	*	*	*	*	*	*	*	*	*	*	*	*	*	*	*	*	*	*	*	*	*
.	.	.	.	.	.	.	.	.	16GLL 16g	(>16eeLL 16eee	.	.	.	.	.	.	.	.	.	.	.	.	.	.	.	.	.	.	.	.	.	.	.	.	.	.	.	.	.
.	.	.	.	.	.	.	.	.	16G#X 16g#X	16ff 16fff)	.	.	.	.	.	.	.	.	.	.	.	.	.	.	.	.	.	.	.	.	.	.	.	.	.	.	.	.	.
.	.	.	.	.	.	.	.	.	16A' 16a	16ff#X' 16fff#X	.	.	.	.	.	.	.	.	.	.	.	.	.	.	.	.	.	.	.	.	.	.	.	.	.	.	.	.	.
.	.	.	.	.	.	.	.	.	16A#X'JJ 16a#X	16ggn'JJ 16gggn	.	.	.	.	.	.	.	.	.	.	.	.	.	.	.	.	.	.	.	.	.	.	.	.	.	.	.	.	.
.	.	.	.	.	.	.	.	.	16B'LL 16b	8gg#X'L 8ggg#X	.	.	.	.	.	.	.	.	.	.	.	.	.	.	.	.	.	.	.	.	.	.	.	.	.	.	.	.	.
.	.	.	.	.	.	.	.	.	16c' 16cc	.	.	.	.	.	.	.	.	.	.	.	.	.	.	.	.	.	.	.	.	.	.	.	.	.	.	.	.	.	.
.	.	.	.	.	.	.	.	.	16c#X' 16cc#X	16aan'L 16aaan	<	.	.	.	.	.	.	.	.	.	.	.	.	.	.	.	.	.	.	.	.	.	.	.	.	.	.	.	.
.	.	.	.	.	.	.	.	.	16d#'JJ 16dd	16aa#X'JJ 16aaa#X	.	.	.	.	.	.	.	.	.	.	.	.	.	.	.	.	.	.	.	.	.	.	.	.	.	.	.	.	.
.	.	.	.	.	.	.	.	.	16d#X'LL 16dd#X	16bb'LL 16bbb	.	.	.	.	.	.	.	.	.	.	.	.	.	.	.	.	.	.	.	.	.	.	.	.	.	.	.	.	.
.	.	.	.	.	.	.	.	.	16e' 16ee	16ccc#' 16cccc#	.	.	.	.	.	.	.	.	.	.	.	.	.	.	.	.	.	.	.	.	.	.	.	.	.	.	.	.	.
.	.	.	.	.	.	.	.	.	16f#' 16ff	16ccc#X' 16cccc#X	.	.	.	.	.	.	.	.	.	.	.	.	.	.	.	.	.	.	.	.	.	.	.	.	.	.	.	.	.
.	.	.	.	.	.	.	.	.	16f#X'JJ 16ff#X	16ddd#'JJ 16dddd#	[	.	.	.	.	.	.	.	.	.	.	.	.	.	.	.	.	.	.	.	.	.	.	.	.	.	.	.	.
*	*	*clefG2	*	*	*	*	*	*	*	*	*	*	*	*	*	*	*	*	*	*	*	*	*	*	*	*	*	*	*	*	*	*	*	*	*	*	*	*	*
=46	=46	=46	=46	=46	=46	=46	=46	=46	=46	=46	=46	=46	=46	=46	=46	=46	=46	=46	=46	=46	=46	=46	=46	=46	=46	=46	=46	=46	=46	=46	=46	=46	=46	=46	=46	=46	=46	=46	=46
!LO:TX:t=pizz.	!	!	!	!LO:TX:t=div.	!	!	!LO:TX:t=pizz. div.	!	!	!	!	!	!	!	!	!	!LO:TX:t=col pugno	!	!	!	!	!	!	!	!	!	!	!	!	!	!	!	!	!	!	!	!	!	!
*	*	*^	*	*^	*	*	*	*	*	*	*	*	*	*	*	*	*	*	*	*^	*	*	*	*	*	*	*	*	*	*	*	*	*^	*	*	*	*	*	*
4r	.	8ryy	8r	.	8r	8ryy	.	4r	8r	.	8g'^L 8gg	8eee-X'^L 8eeee-X	ff	8r	8r	.	8r	.	4r	.	1r	4r	4ryy	.	1r	.	1r	4r	.	8r	8r	.	8r	8r	.	4ryy	4r	.	8r	4r	.	8r	.
.	.	.	.	.	.	.	.	.	.	.	.	.	.	.	.	.	.	.	.	.	.	.	.	.	.	.	.	.	.	.	.	.	.	.	.	.	.	.	8qddd/	.	f	.	.
.	.	(>4g	(<4e-X	mf	(>4b-X	(<4f	mf	.	8ee-X^ 8eee-X	f	16g'L 16gg	16eee-'L 16eeee-	.	8ee-X'	8eee-X'	f	8ee-X'	pp	.	.	.	.	.	.	.	.	.	.	.	4e-X	[8g	mf	4f	(>4b-X	mf	.	.	.	8eee-X'	.	.	8eee-X'	f
.	.	.	.	.	.	.	.	.	.	.	16g'JJ 16gg	16eee-'JJ 16eeee-	.	.	.	.	.	.	.	.	.	.	.	.	.	.	.	.	.	.	.	.	.	.	.	.	.	.	.	.	.	.	.
.	.	.	.	.	.	.	.	.	.	.	.	.	.	.	.	.	.	.	.	.	.	.	.	.	.	.	.	.	.	.	.	.	.	.	.	.	(<16qcc\LL	f	.	.	.	.	.
!	!	!	!	!	!	!	!	!	!	!	!	!	!	!	!	!	!	!	!	!	!	!	!	!	!	!	!	!LO:TX:t=a2	!	!	!	!	!	!	!	!	!	!	!	!	!	!	!
.	.	.	.	.	.	.	.	.	.	.	.	.	.	.	.	.	.	.	.	.	.	.	.	.	.	.	.	.	.	.	.	.	.	.	.	.	16qdd\JJ	.	.	(>8qfff/	f	.	.
8e-X	p	.	.	.	.	.	.	8ee-X^ 8eee-X	4r	f	8g'L 8gg	8eee-'L 8eeee-	.	8r	8r	.	4r	.	8xL	p	.	[2.E-X [2.G	[2.BB-X	p	.	.	.	[2.b-	p	.	2.g_	.	.	.	.	8r	8ee-X')	.	8r	8eee-X')	.	16eee-'LL	.
.	.	.	.	.	.	.	.	.	.	.	.	.	.	.	.	.	.	.	.	.	.	.	.	.	.	.	.	.	.	.	.	.	.	.	.	.	.	.	.	.	.	16eee-'	.
.	.	.	.	.	.	.	.	.	.	.	.	.	.	.	.	.	.	.	.	.	.	.	.	.	.	.	.	.	.	.	.	.	.	.	.	(>16qff/LL	.	.	.	.	.	.	.
.	.	.	.	.	.	.	.	.	.	.	.	.	.	.	.	.	.	.	.	.	.	.	.	.	.	.	.	.	.	.	.	.	.	.	.	16qeen/JJ	.	.	8qddd/	.	.	.	.
8r	.	8an	8f	.	8cc	8g	.	8r	.	.	8ccn'J 8cccn	8dddn'J 8ddddn	.	8dd'	8ddd'	.	.	.	8xJ	.	.	.	.	.	.	.	.	.	.	8f	.	.	8a	8cc	.	8ee-X')	8r	.	8eee-'	8r	.	16ddd'	.
.	.	.	.	.	.	.	.	.	.	.	.	.	.	.	.	.	.	.	.	.	.	.	.	.	.	.	.	.	.	.	.	.	.	.	.	.	.	.	.	.	.	16ddd'JJ	.
.	.	.	.	.	.	.	.	.	.	.	.	.	.	.	.	.	.	.	.	.	.	.	.	.	.	.	.	.	.	.	.	.	.	.	.	.	.	.	.	(>8qfff/	.	.	.
8B-X	.	4g)	4e-)	.	4b-)	4f)	.	8r	8ee-^ 8eee-	.	8b-X'L 8bb-X	8cccn'L 8ccccn	.	8cc'L	8ccc'L	.	8r	.	8xL	.	.	.	.	.	.	.	.	.	.	4e-	.	.	4f	4b-	.	4ryy	4r	.	8r	8eee-')	.	16ccc'LL	.
.	.	.	.	.	.	.	.	.	.	.	.	.	.	.	.	.	.	.	.	.	.	.	.	.	.	.	.	.	.	.	.	.	.	.	.	.	.	.	.	.	.	16ccc'J	.
.	.	.	.	.	.	.	.	.	.	.	.	.	.	.	.	.	.	.	.	.	.	.	.	.	.	.	.	.	.	.	.	.	.	.	.	.	.	.	8qddd/	.	.	.	.
8r	.	.	.	.	.	.	.	8ee-^ 8eee-	8r	.	16g'L 16gg	16eee-'L 16eeee-	.	8ee-'J	8eee-'J	.	8ee-'	.	8xJ	.	.	.	.	.	.	.	.	.	.	.	.	.	.	.	.	.	.	.	8eee-'	8r	.	8eee-'J	.
.	.	.	.	.	.	.	.	.	.	.	16g'JJ 16gg	16eee-'JJ 16eeee-	.	.	.	.	.	.	.	.	.	.	.	.	.	.	.	.	.	.	.	.	.	.	.	.	.	.	.	.	.	.	.
.	.	.	.	.	.	.	.	.	.	.	.	.	.	.	.	.	.	.	.	.	.	.	.	.	.	.	.	.	.	.	.	.	.	.	.	.	(<16qcc\LL	.	.	.	.	.	.
.	.	.	.	.	.	.	.	.	.	.	.	.	.	.	.	.	.	.	.	.	.	.	.	.	.	.	.	.	.	.	.	.	.	.	.	.	16qdd\JJ	.	.	(>8qfff/	.	.	.
8e-	.	(>8aL	(<8fL	.	(>8ccL	(<8gL	.	4r	8r	.	16b-'LL 16bb-	16ccc'LL 16cccc	.	8r	8r	.	4r	.	8xL	.	.	.	.	.	.	.	.	.	.	8fL	.	.	8aL	8ccL	.	8r	8ee-')	.	8r	8eee-')	.	16ccc'LL	.
.	.	.	.	.	.	.	.	.	.	.	16b-'J 16bb-	16ccc'J 16cccc	.	.	.	.	.	.	.	.	.	.	.	.	.	.	.	.	.	.	.	.	.	.	.	.	.	.	.	.	.	16ccc'	.
.	.	.	.	.	.	.	.	.	.	.	.	.	.	.	.	.	.	.	.	.	.	.	.	.	.	.	.	.	.	.	.	.	.	.	.	(>16qff/LL	.	.	.	.	.	.	.
.	.	.	.	.	.	.	.	.	.	.	.	.	.	.	.	.	.	.	.	.	.	.	.	.	.	.	.	.	.	.	.	.	.	.	.	16qeen/JJ	.	.	8qddd/	.	.	.	.
8r	.	[8gJ	[8e-J	.	[8b-J	[8fJ	.	.	8ee-^ 8eee-	.	8f'J 8ff	8bb-X'J 8bbb-X	.	8b-X'	8bb-X'	.	.	.	8xJ	.	.	.	.	.	.	.	.	.	.	[8e-J	.	.	[8fJ	[8b-J	.	8ee-X')	8r	.	8eee-	8r	.	16bb-X'	.
.	.	.	.	.	.	.	.	.	.	.	.	.	.	.	.	.	.	.	.	.	.	.	.	.	.	.	.	.	.	.	.	.	.	.	.	.	.	.	.	.	.	16bb-'JJ	.
*	*	*	*	*	*	*	*	*	*	*	*	*	*	*	*	*	*	*	*	*	*	*v	*v	*	*	*	*	*	*	*	*	*	*	*	*	*	*	*	*	*	*	*	*
=47	=47	=47	=47	=47	=47	=47	=47	=47	=47	=47	=47	=47	=47	=47	=47	=47	=47	=47	=47	=47	=47	=47	=47	=47	=47	=47	=47	=47	=47	=47	=47	=47	=47	=47	=47	=47	=47	=47	=47	=47	=47	=47
!!pagebreak:original
!	!	!	!	!	!	!	!	!	!	!	!	!	!	!	!	!	!	!	!	!	!	!	!	!	!	!	!LO:TX:t=(a2)	!	!	!	!	!	!	!	!	!	!	!	!	!	!	!
4r	.	4g])	4e-])	.	4b-X])	4f])	.	8ee-X 8eee-X	4r	.	8e-X'L 8ee-X	8eee-X'L 8eeee-X	.	8ee-X'L	8eee-X'L	.	4r	.	4r	.	1r	2BB-X_ 2E-X_ 2G_	.	1r	.	1r	8b-]	.	4e-X]	4g]	.	4f]	4b-X])	.	4ryy	4r	.	8r	4r	.	16eee-X'LL	.
.	.	.	.	.	.	.	.	.	.	.	.	.	.	.	.	.	.	.	.	.	.	.	.	.	.	.	.	.	.	.	.	.	.	.	.	.	.	.	.	.	16eee-'	.
.	.	.	.	.	.	.	.	.	.	.	.	.	.	.	.	.	.	.	.	.	.	.	.	.	.	.	.	.	.	.	.	.	.	.	.	.	.	8qddd/	.	.	.	.
.	.	.	.	.	.	.	.	8r	.	.	8f'J 8ff	8ddd'J 8dddd	.	8dd'J	8ddd'J	.	.	.	.	.	.	.	.	.	.	.	8r	.	.	.	.	.	.	.	.	.	.	8eee-X'	.	.	16ddd'	.
.	.	.	.	.	.	.	.	.	.	.	.	.	.	.	.	.	.	.	.	.	.	.	.	.	.	.	.	.	.	.	.	.	.	.	.	.	.	.	.	.	16ddd'JJ	.
.	.	.	.	.	.	.	.	.	.	.	.	.	.	.	.	.	.	.	.	.	.	.	.	.	.	.	.	.	.	.	.	.	.	.	.	(<16qcc\LL	.	.	.	.	.	.
.	.	.	.	.	.	.	.	.	.	.	.	.	.	.	.	.	.	.	.	.	.	.	.	.	.	.	.	.	.	.	.	.	.	.	.	16qdd\JJ	.	.	(>8qfff/	.	.	.
8e-X	.	2g	(<4f	.	(>4ee-X	(<4cc	.	8r	8ee-X^ 8eee-X	.	8b-X'L 8bb-X	8ccc'L 8cccc	.	8r	8r	.	8r	.	8xL	.	.	.	.	.	.	.	[2.b-	.	4f	[2.g	.	4cc	(>4ee-X	.	8r	8ee-X')	.	8r	8eee-X')	.	16ccc'LL	.
.	.	.	.	.	.	.	.	.	.	.	.	.	.	.	.	.	.	.	.	.	.	.	.	.	.	.	.	.	.	.	.	.	.	.	.	.	.	.	.	.	16ccc'J	.
.	.	.	.	.	.	.	.	.	.	.	.	.	.	.	.	.	.	.	.	.	.	.	.	.	.	.	.	.	.	.	.	.	.	.	(>16qff/LL	.	.	.	.	.	.	.
.	.	.	.	.	.	.	.	.	.	.	.	.	.	.	.	.	.	.	.	.	.	.	.	.	.	.	.	.	.	.	.	.	.	.	16qeen/JJ	.	.	8qddd/	.	.	.	.
8r	.	.	.	.	.	.	.	8ee- 8eee-	8r	.	16g'L 16gg	16fff'L 16ffff	.	8ff'	8fff'	.	8ff'	.	8xJ	.	.	.	.	.	.	.	.	.	.	.	.	.	.	.	8ee-X')	8r	.	8eee-'	8r	.	8fff'J	.
.	.	.	.	.	.	.	.	.	.	.	16g'JJ 16gg	16fff'JJ 16ffff	.	.	.	.	.	.	.	.	.	.	.	.	.	.	.	.	.	.	.	.	.	.	.	.	.	.	.	.	.	.
.	.	.	.	.	.	.	.	.	.	.	.	.	.	.	.	.	.	.	.	.	.	.	.	.	.	.	.	.	.	.	.	.	.	.	.	.	.	.	(>8qfff/	.	.	.
8B-X	.	.	4e-X)	.	4dd)	4b-X)	.	4r	8r	.	8f'L 8ff	8eee-'L 8eeee-	.	8ee-'L	8eee-'L	.	4r	.	8xL	.	.	8BB-X] 8E-X] 8Gn]	.	.	.	.	.	.	4e-X	.	.	4b-X	4dd	.	4r	4ryy	.	8r	8eee-')	.	16eee-'LL	.
.	.	.	.	.	.	.	.	.	.	.	.	.	.	.	.	.	.	.	.	.	.	.	.	.	.	.	.	.	.	.	.	.	.	.	.	.	.	.	.	.	16eee-'	.
.	.	.	.	.	.	.	.	.	.	.	.	.	.	.	.	.	.	.	.	.	.	.	.	.	.	.	.	.	.	.	.	.	.	.	.	.	.	8qddd/	.	.	.	.
8r	.	.	.	.	.	.	.	.	8ee-^ 8eee-	.	8cc'J 8ccc	8ddd'J 8dddd	.	8dd'J	8ddd'J	.	.	.	8xJ	.	.	8r	.	.	.	.	.	.	.	.	.	.	.	.	.	.	.	8eee-'	8r	.	16ddd'	.
.	.	.	.	.	.	.	.	.	.	.	.	.	.	.	.	.	.	.	.	.	.	.	.	.	.	.	.	.	.	.	.	.	.	.	.	.	.	.	.	.	16ddd'JJ	.
.	.	.	.	.	.	.	.	.	.	.	.	.	.	.	.	.	.	.	.	.	.	.	.	.	.	.	.	.	.	.	.	.	.	.	.	(<16qcc\LL	.	.	.	.	.	.
.	.	.	.	.	.	.	.	.	.	.	.	.	.	.	.	.	.	.	.	.	.	.	.	.	.	.	.	.	.	.	.	.	.	.	.	16qdd\JJ	.	.	(>8qfff/	.	.	.
4r	.	(>8aL	(<8fL	.	(>8ccL	(<8gL	.	8ee- 8eee-	4r	.	8b-'L 8bb-	8ccc'L 8cccc	.	8r	8r	.	8r	.	8xL	.	.	[4BB [4E [4G	.	.	.	.	.	.	8fL	.	.	8aL	8ccL	.	8r	8ee-')	.	8r	8eee-')	.	16ccc'LL	.
.	.	.	.	.	.	.	.	.	.	.	.	.	.	.	.	.	.	.	.	.	.	.	.	.	.	.	.	.	.	.	.	.	.	.	.	.	.	.	.	.	16ccc'J	.
.	.	.	.	.	.	.	.	.	.	.	.	.	.	.	.	.	.	.	.	.	.	.	.	.	.	.	.	.	.	.	.	.	.	.	(>16qff-X/LL	.	.	.	.	.	.	.
.	.	.	.	.	.	.	.	.	.	.	.	.	.	.	.	.	.	.	.	.	.	.	.	.	.	.	.	.	.	.	.	.	.	.	16qeen/JJ	.	.	8qddd/	.	.	.	.
.	.	[8gJ	[8e-J	.	[8b-J	[8fJ	.	8r	.	.	16g'L 16gg	16eee-'L 16eeee-	.	8ee-'	8eee-'	.	8ee-X'	.	8xJ	.	.	.	.	.	.	.	.	.	[8enJ	.	.	[8fJ	[8b-XJ	.	8ee-X')	8r	.	8eee-'	8r	.	8eee-'J	.
.	.	.	.	.	.	.	.	.	.	.	16g'JJ 16gg	16eee-'JJ 16eeee-	.	.	.	.	.	.	.	.	.	.	.	.	.	.	.	.	.	.	.	.	.	.	.	.	.	.	.	.	.	.
=48	=48	=48	=48	=48	=48	=48	=48	=48	=48	=48	=48	=48	=48	=48	=48	=48	=48	=48	=48	=48	=48	=48	=48	=48	=48	=48	=48	=48	=48	=48	=48	=48	=48	=48	=48	=48	=48	=48	=48	=48	=48	=48
4r	.	8g])	8e-])	.	8b-])	8f])	.	8r	8ee-X^ 8eee-X	.	8e-X'L 8ee-X	8ddd'L 8dddd	.	8dd'L	8ddd'L	.	2r	.	4r	.	1r	2.BB_ 2.E_ 2.G_	.	1r	.	1r	8b-]	.	8e]	8gL]	.	8f]	8b-])	.	4ryy	4r	.	8r	4r	.	16ddd'LL	.
.	.	.	.	.	.	.	.	.	.	.	.	.	.	.	.	.	.	.	.	.	.	.	.	.	.	.	.	.	.	.	.	.	.	.	.	.	.	.	.	.	16ddd'	.
.	.	.	.	.	.	.	.	.	.	.	.	.	.	.	.	.	.	.	.	.	.	.	.	.	.	.	.	.	.	.	.	.	.	.	.	.	.	8qddd/	.	.	.	.
.	.	[4g	(<4f	.	(>4ee-X	(<4cc	.	8ee-X 8eee-X	8r	.	8f'J 8ff	8bb-X'J 8bbb-X	.	8b-X'J	8bb-X'J	.	.	.	.	.	.	.	.	.	.	.	8r	.	4f	[8gJ	.	4cc	(>4ee-X	.	.	.	.	8eee-X'	.	.	16bb-X'	.
.	.	.	.	.	.	.	.	.	.	.	.	.	.	.	.	.	.	.	.	.	.	.	.	.	.	.	.	.	.	.	.	.	.	.	.	.	.	.	.	.	16bb-'JJ	.
.	.	.	.	.	.	.	.	.	.	.	.	.	.	.	.	.	.	.	.	.	.	.	.	.	.	.	.	.	.	.	.	.	.	.	.	(<16qcc\LL	.	.	.	.	.	.
.	.	.	.	.	.	.	.	.	.	.	.	.	.	.	.	.	.	.	.	.	.	.	.	.	.	.	.	.	.	.	.	.	.	.	.	16qdd\JJ	.	.	(>8qfff/	.	.	.
8e-X	.	.	.	.	.	.	.	8r	8r	.	8f'L 8ff	8ccc'L 8cccc	.	8r	8r	.	.	.	8xL	.	.	.	.	.	.	.	2.b-	.	.	2.g]	.	.	.	.	8r	8ee-X')	.	8r	8eee-X')	.	16ccc'LL	.
.	.	.	.	.	.	.	.	.	.	.	.	.	.	.	.	.	.	.	.	.	.	.	.	.	.	.	.	.	.	.	.	.	.	.	.	.	.	.	.	.	16ccc'J	.
.	.	.	.	.	.	.	.	.	.	.	.	.	.	.	.	.	.	.	.	.	.	.	.	.	.	.	.	.	.	.	.	.	.	.	(>16qff/LL	.	.	.	.	.	.	.
.	.	.	.	.	.	.	.	.	.	.	.	.	.	.	.	.	.	.	.	.	.	.	.	.	.	.	.	.	.	.	.	.	.	.	16qeen/JJ	.	.	8qddd/	.	.	.	.
8r	.	4g]	4e-X)	.	4dd)	4b-X)	.	8r	8ee-^ 8eee-	.	16b-X'L 16bb-X	16ccc'L 16cccc	.	8cc'	8ccc'	.	.	.	8xJ	.	.	.	.	.	.	.	.	.	4e-X	.	.	4b-X	4dd	.	8ee-X')	8r	.	8eee-'	8r	.	8ccc'J	.
.	.	.	.	.	.	.	.	.	.	.	16b-'JJ 16bb-	16ccc'JJ 16cccc	.	.	.	.	.	.	.	.	.	.	.	.	.	.	.	.	.	.	.	.	.	.	.	.	.	.	.	.	.	.
.	.	.	.	.	.	.	.	.	.	.	.	.	.	.	.	.	.	.	.	.	.	.	.	.	.	.	.	.	.	.	.	.	.	.	.	.	.	.	(>8qfff/	.	.	.
8B-X	.	.	.	.	.	.	.	8ee- 8eee-	4r	.	8g'L 8gg	8eee-X'L 8eeee-X	.	8ee-X'L	8eee-X'L	.	8ee-X'	.	8xL	.	.	.	.	.	.	.	.	.	.	.	.	.	.	.	4r	4ryy	.	8r	8eee-')	.	16eee-X'LL	.
.	.	.	.	.	.	.	.	.	.	.	.	.	.	.	.	.	.	.	.	.	.	.	.	.	.	.	.	.	.	.	.	.	.	.	.	.	.	.	.	.	16eee-'	.
.	.	.	.	.	.	.	.	.	.	.	.	.	.	.	.	.	.	.	.	.	.	.	.	.	.	.	.	.	.	.	.	.	.	.	.	.	.	8qddd/	.	.	.	.
8r	.	(>8a	(<8f	.	(>8cc	(<8g	.	4r	.	.	8e-'J 8ee-	8ddd'J 8dddd	.	8dd'J	8ddd'J	.	8r	.	8xJ	.	.	.	.	.	.	.	.	.	8f	.	.	8a	8cc	.	.	.	.	8eee-'	8r	.	16ddd'	.
.	.	.	.	.	.	.	.	.	.	.	.	.	.	.	.	.	.	.	.	.	.	.	.	.	.	.	.	.	.	.	.	.	.	.	.	.	.	.	.	.	16ddd'JJ	.
.	.	.	.	.	.	.	.	.	.	.	.	.	.	.	.	.	.	.	.	.	.	.	.	.	.	.	.	.	.	.	.	.	.	.	.	(<16qcc\LL	.	.	.	.	.	.
.	.	.	.	.	.	.	.	.	.	.	.	.	.	.	.	.	.	.	.	.	.	.	.	.	.	.	.	.	.	.	.	.	.	.	.	16qdd\JJ	.	.	(>8qfff/	.	.	.
8E-X	.	4g)	4e-)	.	4b-X)	4f)	.	.	8ee-^ 8eee-	.	16f'LL 16ff	16bb-'LL 16bbb-	.	4r	4r	.	4r	.	8xL	.	.	8BB] 8E] 8G]	.	.	.	.	.	.	4e-	.	.	4f	4b-X)	.	8r	8ee-')	.	8r	8eee-')	.	8bb-'L	.
.	.	.	.	.	.	.	.	.	.	.	16f'J 16ff	16bb-'J 16bbb-	.	.	.	.	.	.	.	.	.	.	.	.	.	.	.	.	.	.	.	.	.	.	.	.	.	.	.	.	.	.
.	.	.	.	.	.	.	.	.	.	.	.	.	.	.	.	.	.	.	.	.	.	.	.	.	.	.	.	.	.	.	.	.	.	.	(>16qff/LL	.	.	.	.	.	.	.
.	.	.	.	.	.	.	.	.	.	.	.	.	.	.	.	.	.	.	.	.	.	.	.	.	.	.	.	.	.	.	.	.	.	.	16qeen/JJ	.	.	8qddd/	.	.	.	.
8r	.	.	.	.	.	.	.	8ee- 8eee-	8r	.	8b-'J 8bb-	8ccc'J 8cccc	.	.	.	.	.	.	8xJ	.	.	8r	.	.	.	.	.	.	.	.	.	.	.	.	8ee-X')	8r	.	8eee-'	8r	.	(>8cccJ	.
*	*	*	*	*	*	*	*	*	*	*	*	*	*	*clefF4	*	*	*	*	*	*	*	*	*	*	*	*	*	*	*	*	*	*	*	*	*	*	*	*	*	*	*	*
=49	=49	=49	=49	=49	=49	=49	=49	=49	=49	=49	=49	=49	=49	=49	=49	=49	=49	=49	=49	=49	=49	=49	=49	=49	=49	=49	=49	=49	=49	=49	=49	=49	=49	=49	=49	=49	=49	=49	=49	=49	=49	=49
!	!	!	!	!	!	!	!	!	!	!	!	!	!	!	!	!	!	!	!	!	!	!	!	!	!	!	!	!	!	!LO:TX:i:t=poco	!	!	!LO:TX:i:t=poco	!	!	!	!	!	!	!	!	!
!	!	!LO:TX:i:t=poco	!	!	!LO:TX:i:t=poco	!	!	!	!	!	!	!LO:TX:t=sim.	!	!	!	!	!	!	!	!	!	!	!	!	!	!	!	!	!	!LO:TX:i:t=poco	!	!	!LO:TX:i:t=poco	!	!LO:TX:i:t=poco	!	!	!	!	!	!	!
4r	.	2.g	(<4d	f	(>4bn	(<4a	f	4r	8r	.	8gL 8gg	8bbn'L 8bbbn	.	2FF 2C 2F 2A	2Bn 2d 2g 2bn	.	8r	.	4r	.	1r	2.C 2.F 2.A	.	1r	.	1r	[1a	.	4d	2.g	f	4a	(>4bn	f	(>4dd	(<4b	f	8r	4r	.	8bbnL)	.
!	!	!	!	!	!	!	!	!	!	!	!	!	!	!	!	!	!	!	!	!	!	!	!	!	!	!	!	!	!	!	!	!	!	!	!	!	!	!	!	!	!LO:TX:t=sim. stacc.	!
.	.	.	.	.	.	.	.	.	.	.	.	.	.	.	.	.	.	.	.	.	.	.	.	.	.	.	.	.	.	.	.	.	.	.	.	.	.	8qccc#X/	.	.	.	.
.	.	.	.	.	.	.	.	.	8dd^ 8ddd	.	16fL 16g 16a 16bn	16aaL 16ddd 16ggg	.	.	.	.	8dd'	.	.	.	.	.	.	.	.	.	.	.	.	.	.	.	.	.	.	.	.	8ddd'	.	.	16ggL	.
.	.	.	.	.	.	.	.	.	.	.	16fJJ 16g 16a 16b	16ggJJ 16ccc 16fff	.	.	.	.	.	.	.	.	.	.	.	.	.	.	.	.	.	.	.	.	.	.	.	.	.	.	.	.	16ffJJ	.
.	.	.	.	.	.	.	.	.	.	.	.	.	.	.	.	.	.	.	.	.	.	.	.	.	.	.	.	.	.	.	.	.	.	.	.	.	.	.	(>8qeeen/	.	.	.
8Fn	.	.	8c#XL	.	8aL	8enL	.	8dd 8ddd	4r	.	8fL 8g 8a 8b	8ffL 8bb 8eeen	.	.	.	.	4r	.	8xL	.	.	.	.	.	.	.	.	.	8c#XL	.	.	8eL	8aL	.	8eeL	8cc#XL	.	8r	8ddd')	.	8eenL	.
.	.	.	.	.	.	.	.	.	.	.	.	.	.	.	.	.	.	.	.	.	.	.	.	.	.	.	.	.	.	.	.	.	.	.	.	.	.	8qccc#/	.	.	.	.
8r	.	.	[8dJ	.	[8bJ	[8aJ	.	8r	.	.	16fL 16g 16a 16b	16ggL 16ccc 16fff	.	.	.	.	.	.	8xJ	.	.	.	.	.	.	.	.	.	[8dJ	.	.	[8aJ	[8bJ	.	[8ddJ	[8bJ	.	8ddd'	8r	.	16ffL	.
.	.	.	.	.	.	.	.	.	.	.	16fJJ 16g 16a 16b	16ffJJ 16bb 16eee	.	.	.	.	.	.	.	.	.	.	.	.	.	.	.	.	.	.	.	.	.	.	.	.	.	.	.	.	16eeJJ	.
.	.	.	.	.	.	.	.	.	.	.	.	.	.	.	.	.	.	.	.	.	.	.	.	.	.	.	.	.	.	.	.	.	.	.	.	.	.	.	(>8qeee/	.	.	.
8C	.	.	8d])	.	8b])	8a])	.	8r	8dd^ 8ddd	.	16fLL 16g 16a 16b	16ggLL 16ccc 16fff	.	2F 2c	2f 2a 2b 2dd 2gg 2bbn	.	8r	.	8xL	.	.	.	.	.	.	.	.	.	8d]	.	.	4.a]	8b])	.	8dd])	8b])	.	8r	8ddd')	.	16ffLL	.
.	.	.	.	.	.	.	.	.	.	.	16fJ 16g 16a 16b	16ggJ 16ggg	.	.	.	.	.	.	.	.	.	.	.	.	.	.	.	.	.	.	.	.	.	.	.	.	.	.	.	.	16ggJ	.
.	.	.	.	.	.	.	.	.	.	.	.	.	.	.	.	.	.	.	.	.	.	.	.	.	.	.	.	.	.	.	.	.	.	.	.	.	.	8qccc#/	.	.	.	.
8r	.	.	(<4en	[	(>4cc#X	(<4cc#	[	8dd 8ddd	8r	.	8fJ 8g 8a 8b	8ffJ 8fff	.	.	.	.	8dd'	.	8xJ	.	.	.	.	.	.	.	.	.	4en	.	.	.	(>4cc#X	.	(>4gg	(<4een	.	8ddd'	8r	.	8ffJ	.
.	.	.	.	.	.	.	.	.	.	.	.	.	.	.	.	.	.	.	.	.	.	.	.	.	.	.	.	.	.	.	.	.	.	.	.	.	.	.	(>8qeee/	.	.	.
8F	.	[4g	.	.	.	.	.	4r	8r	.	8fL 8g 8a 8b	8ggL 8ggg	.	.	.	.	4r	.	8xL	.	.	[4C [4F [4A	.	.	.	.	.	.	.	[4g	.	.	.	.	.	.	.	4r	8ddd')	.	8ggL	.
8r	.	.	[8d	.	[8b	[8a)	.	.	8dd^ 8ddd	.	16fL 16ff	16aaL 16fff 16aaa	.	.	.	.	.	.	8xJ	.	.	.	.	.	.	.	.	.	[8d	.	.	[8a	[8b	.	8ff	8dd	.	.	8r	.	16aaL	.
.	.	.	.	.	.	.	.	.	.	.	16fJJ 16ff	16aaJJ 16fff 16aaa	.	.	.	.	.	.	.	.	.	.	.	.	.	.	.	.	.	.	.	.	.	.	.	.	.	.	.	.	16aaJJ	.
=50	=50	=50	=50	=50	=50	=50	=50	=50	=50	=50	=50	=50	=50	=50	=50	=50	=50	=50	=50	=50	=50	=50	=50	=50	=50	=50	=50	=50	=50	=50	=50	=50	=50	=50	=50	=50	=50	=50	=50	=50	=50	=50
!!pagebreak:original
*	*	*	*	*	*	*	*	*	*	*	*	*	*	*	*	*	*clefpercussion2	*	*	*	*	*	*	*	*	*	*	*	*	*	*	*	*	*	*	*	*	*	*	*	*	*
!	!	!	!	!	!	!	!	!	!	!	!	!	!	!	!	!	!	!	!	!	!	!	!	!	!	!	!LO:TX:t=(a2)	!	!	!	!	!	!	!	!	!	!	!	!	!	!	!
*	*	*	*	*	*	*	*	*^	*	*	*	*	*	*	*	*	*	*	*	*	*	*^	*	*^	*	*^	*^	*	*	*	*	*	*	*	*	*	*	*	*^	*	*	*
8C	.	8g]	8d])	.	8bL])	8aL])	.	8ddd	8dd	2r	.	8cL 8cc	8cccL 8cccc	.	2r	2r	.	8xL	.	1r	.	1r	4.F] 4.A]	4.C]	.	2r	1r	.	2r	1r	4.a]	2ryy	.	8d]	8g]	.	8aL]	8bL])	.	8ffL)	8ddL)	.	1r	4r	8r	.	8cccL	.
.	.	.	.	.	.	.	.	.	.	.	.	.	.	.	.	.	.	.	.	.	.	.	.	.	.	.	.	.	.	.	.	.	.	.	.	.	.	.	.	.	.	.	.	.	(<8qcccn\	.	.	.
8r	.	4.a	4.f	.	(>8ddJ	(<8bJ	.	8r	8ryy	.	.	16cL 16cc	16cccL 16cccc	.	.	.	.	8xJ	.	.	.	.	.	.	.	.	.	.	.	.	.	.	.	8r	8r	.	8ddJ	8ddJ	.	(>8ddJ	8bJ	.	.	.	8ddd')	.	16cccL	.
.	.	.	.	.	.	.	.	.	.	.	.	16dJJ 16b	16dddJJ 16bbb 16dddd	.	.	.	.	.	.	.	.	.	.	.	.	.	.	.	.	.	.	.	.	.	.	.	.	.	.	.	.	.	.	.	.	.	16dddJJ	.
!	!	!	!	!	!	!	!	!	!	!LO:TX:i:t=poco	!	!	!	!	!	!	!	!	!	!	!	!	!	!	!	!	!	!	!	!	!	!	!	!	!	!	!	!	!	!	!	!	!	!	!	!	!	!
!	!	!	!	!	!	!	!	!	!	!LO:TX:t=arco	!	!	!	!	!	!	!	!	!	!	!	!	!	!	!	!	!	!	!	!	!	!	!	!	!	!	!	!	!	!	!	!	!	!	!	!	!	!
.	.	.	.	.	.	.	.	.	.	.	.	.	.	.	.	.	.	.	.	.	.	.	.	.	.	.	.	.	.	.	.	.	.	.	.	.	.	.	.	.	.	.	.	(<8qfff/	.	.	.	.
4r	.	.	.	.	4ccn)	4f)	.	4r	4ryy	.	f	16dLL 16b	16dddLL 16bbb 16dddd	.	.	.	.	8xL	.	.	.	.	.	.	.	.	.	.	.	.	.	.	.	4F	4f	.	4cc	4ccn	.	4ccn)	4a	.	.	8ccc')	4r	.	16dddLL	.
.	.	.	.	.	.	.	.	.	.	.	.	16cJ 16cc	16cccJ 16cccc	.	.	.	.	.	.	.	.	.	.	.	.	.	.	.	.	.	.	.	.	.	.	.	.	.	.	.	.	.	.	.	.	.	16cccJ	.
.	.	.	.	.	.	.	.	.	.	.	.	8dJ 8b	8dddJ 8bbb 8dddd	.	.	.	.	8xJ	.	.	.	.	8r	8ryy	.	.	.	.	.	.	8r	.	.	.	.	.	.	.	.	.	.	.	.	8r	.	.	8dddJ	.
!	!	!	!	!	!	!	!	!	!	!LO:TX:t=unis.	!	!	!	!	!	!	!	!	!	!	!	!	!	!	!	!	!	!	!	!	!	!	!	!	!	!	!	!	!	!	!	!	!	!	!	!	!	!
!	!	!	!	!	!	!	!	!	!	!LO:TX:t=unis.	!	!	!	!	!	!	!	!	!	!	!	!	!	!	!	!	!	!	!	!	!	!	!	!	!	!	!	!	!	!	!	!	!	!	!	!	!	!
!	!	!	!	!	!	!	!	!	!	!LO:TX:i:t=poco	!	!	!	!	!	!	!	!	!	!	!	!	!	!	!	!	!	!	!	!	!	!	!	!	!	!	!	!	!	!	!	!	!	!	!	!	!	!
!	!	!LO:TX:t=unis.	!	!	!LO:TX:t=unis.	!	!	!	!	!LO:TX:t=arco	!	!	!	!	!	!	!	!	!	!	!	!	!	!	!	!	!	!	!	!	!	!	!	!	!	!	!	!	!	!	!	!	!	!LO:TX:t=a2	!	!	!	!
8G	mf	4.e~	2ryy	.	4.a~	2ryy	.	4.cc#X~	2ryy	4.aa~	f	8eL 8ee	8eeeL 8eeee	.	2GGG 2GG 2D 2G	2B 2d 2g 2b	f	2r	.	.	.	.	[2G [2B	[2D	.	[2a	.	.	4f#X	.	4a	4d	.	[2G	[2e	.	2g	2b	.	4.cc#X	4.a	.	.	8r	2ryy	.	16eeeLL	.
.	.	.	.	.	.	.	.	.	.	.	.	.	.	.	.	.	.	.	.	.	.	.	.	.	.	.	.	.	.	.	.	.	.	.	.	.	.	.	.	.	.	.	.	.	.	.	16eeeJ	.
8r	.	.	.	.	.	.	.	.	.	.	.	16eL 16ee	16eeeL 16eeee	.	.	.	.	.	.	.	.	.	.	.	.	.	.	.	.	.	.	.	.	.	.	.	.	.	.	.	.	.	.	4aa	.	.	8eeeJ	.
.	.	.	.	.	.	.	.	.	.	.	.	16eJJ 16ee	16eeeJJ 16eeee	.	.	.	.	.	.	.	.	.	.	.	.	.	.	.	.	.	.	.	.	.	.	.	.	.	.	.	.	.	.	.	.	.	.	.
8D	.	.	.	.	.	.	.	.	.	.	.	8eeL 8eee	8fff#XL 8ffff#X	.	.	.	.	.	.	.	.	.	.	.	.	.	.	.	[4g	.	[4bX	[4e	.	.	.	.	.	.	.	.	.	.	.	.	.	.	16fff#XLL	.
.	.	.	.	.	.	.	.	.	.	.	.	.	.	.	.	.	.	.	.	.	.	.	.	.	.	.	.	.	.	.	.	.	.	.	.	.	.	.	.	.	.	.	.	.	.	.	16fff#J	.
8r	.	[8e	.	.	[8a	.	.	[8cc#	.	[8aa	.	16f#XL 16ff#X	16eeeL 16eeee	.	.	.	.	.	.	.	.	.	.	.	.	.	.	.	.	.	.	.	.	.	.	.	.	.	.	[8cc#	[8a	.	.	[8aa	.	.	8eeeJ	.
.	.	.	.	.	.	.	.	.	.	.	.	16f#JJ 16ff#	16eeeJJ 16eeee	.	.	.	.	.	.	.	.	.	.	.	.	.	.	.	.	.	.	.	.	.	.	.	.	.	.	.	.	.	.	.	.	.	.	.
*	*	*v	*v	*	*	*	*	*v	*v	*	*	*	*	*	*	*	*	*	*	*	*	*	*	*	*	*	*	*	*	*	*	*	*	*	*	*	*	*	*	*	*	*	*	*v	*v	*	*	*
*	*	*	*	*v	*v	*	*	*	*	*	*	*	*	*	*	*	*	*	*	*	*	*	*	*	*	*	*	*	*	*	*	*	*	*	*	*	*	*	*	*	*	*	*	*	*
=51	=51	=51	=51	=51	=51	=51	=51	=51	=51	=51	=51	=51	=51	=51	=51	=51	=51	=51	=51	=51	=51	=51	=51	=51	=51	=51	=51	=51	=51	=51	=51	=51	=51	=51	=51	=51	=51	=51	=51	=51	=51	=51	=51	=51
8G	.	8eL]	.	8aL]	.	8cc#L]	8aaL]	.	8eL 8ee	8ff#XL 8fff#X	.	1r	1r	.	1r	.	1r	.	1r	4.G] 4.B]	4.D]	.	2.a_	1r	.	8g]	1r	8b]	8e]	.	8G]	8e]	.	2.g	2.b	.	4.cc#]	4.a]	.	1r	8aa]	.	8r	.
8r	.	(<8gJ	.	(>8eeJ	.	8ggJ	(>8eeeJ	.	16eL 16ee	16eeeL 16eeee	.	.	.	.	.	.	.	.	.	.	.	.	.	.	.	4f#X	.	4a	4d	.	8r	8r	.	.	.	.	.	.	.	.	8r	.	8eee	.
.	.	.	.	.	.	.	.	.	16eJJ 16ee	16eeeJJ 16eeee	.	.	.	.	.	.	.	.	.	.	.	.	.	.	.	.	.	.	.	.	.	.	.	.	.	.	.	.	.	.	.	.	.	.
4r	.	4e~)	.	4a~)	.	4cc#X~	4aa~)	.	8eeL 8eee	8fff#L 8ffff#X	.	.	.	.	.	.	.	.	.	.	.	.	.	.	.	.	.	.	.	.	[2.G	[2.e	.	.	.	.	.	.	.	.	2aa	.	16fff#XLL	.
.	.	.	.	.	.	.	.	.	.	.	.	.	.	.	.	.	.	.	.	.	.	.	.	.	.	.	.	.	.	.	.	.	.	.	.	.	.	.	.	.	.	.	16fff#J	.
.	.	.	.	.	.	.	.	.	16f#XL 16ff#X	16eeeL 16eeee	.	.	.	.	.	.	.	.	.	8r	8ryy	.	.	.	.	4g	.	4bX~	4e~	.	.	.	.	.	.	.	[8cc#X	[8a	.	.	.	.	8eeeJ	.
.	.	.	.	.	.	.	.	.	16f#JJ 16ff#	16eeeJJ 16eeee	.	.	.	.	.	.	.	.	.	.	.	.	.	.	.	.	.	.	.	.	.	.	.	.	.	.	.	.	.	.	.	.	.	.
8G	.	4e~	.	4a~	.	4cc#~	4aa~	.	8eL 8ee	8ff#L 8fff#	.	.	.	.	.	.	.	.	.	[2G [2B	[2D	.	.	.	.	.	.	.	.	.	.	.	.	.	.	.	4.cc#]	4.a]	.	.	.	.	8r	.
*	*	*	*	*	*	*	*	*	*clefF4	*	*	*	*	*	*	*	*	*	*	*	*	*	*	*	*	*	*	*	*	*	*	*	*	*	*	*	*	*	*	*	*	*	*	*
8r	.	.	.	.	.	.	.	.	8EJ 8e	16eeeL 16eeee	.	.	.	.	.	.	.	.	.	.	.	.	.	.	.	8r	.	8r	8r	.	.	.	.	.	.	.	.	.	.	.	.	.	8eee	.
.	.	.	.	.	.	.	.	.	.	16eeeJJ 16eeee	.	.	.	.	.	.	.	.	.	.	.	.	.	.	.	.	.	.	.	.	.	.	.	.	.	.	.	.	.	.	.	.	.	.
8D	.	(<8gL	.	(>8eeL	.	8ggL	(>8eeeL	.	8EEEL 8EE	8fff#L 8ffff#	.	.	.	.	.	.	.	.	.	.	.	.	8a]	.	.	8f#L	.	(>8aL	(<8dL	.	.	.	.	[4g	[4b	.	.	.	.	.	8r	.	16fff#LL	.
.	.	.	.	.	.	.	.	.	.	.	.	.	.	.	.	.	.	.	.	.	.	.	.	.	.	.	.	.	.	.	.	.	.	.	.	.	.	.	.	.	.	.	16fff#J	.
8r	.	[8eJ	.	[8aJ	.	[8cc#J	[8aaJ	.	8EEJ 8E	8eeeJ 8eeee	.	.	.	.	.	.	.	.	.	.	.	.	8r	.	.	[8gJ	.	[8bJ	[8eJ	.	.	.	.	.	.	.	[8cc#	[8a	.	.	[8aa	.	8eeeJ	.
*	*	*	*	*	*	*	*	*	*	*	*	*	*	*	*	*	*	*	*	*	*	*	*v	*v	*	*	*	*	*	*	*	*	*	*	*	*	*	*	*	*	*	*	*	*
=52	=52	=52	=52	=52	=52	=52	=52	=52	=52	=52	=52	=52	=52	=52	=52	=52	=52	=52	=52	=52	=52	=52	=52	=52	=52	=52	=52	=52	=52	=52	=52	=52	=52	=52	=52	=52	=52	=52	=52	=52	=52	=52	=52
8G	.	8e])	.	8aL])	.	8cc#L]	8aaL])	.	8r	8r	ff	1r	1r	.	2r	.	2r	.	1r	2G] 2B]	2D]	<	8r	.	8g]	8r	8b])	8e])	.	8G]	8e]	.	8g]	8b]	.	8cc#]	8a]	.	1r	8aaL]	<	8r	.
!	!	!	!	!	!	!	!	!	!	!	!	!	!	!	!	!	!	!	!	!	!	!	!LO:TX:t=a2	!	!	!	!	!	!	!	!	!	!	!	!	!	!	!	!	!	!	!	!
8r	.	4.d	<	8gJ	<	8bJ	(>8ggJ	<	4A^ 4a	16aaaLL 16aaaa	.	.	.	.	.	.	.	.	.	.	.	.	4.b	<	4.a	4.d	4.a	4.f#X	<	4.D	4.d	<	4.e	4.g	<	4.dd	4.b	<	.	(>8ggJ	.	16aaLL	.
.	.	.	.	.	.	.	.	.	.	16aaaJJ 16aaaa	.	.	.	.	.	.	.	.	.	.	.	.	.	.	.	.	.	.	.	.	.	.	.	.	.	.	.	.	.	.	.	16aaJJ	.
!LO:TX:t=arco	!	!	!	!	!	!	!	!	!	!	!	!	!	!	!	!	!	!	!	!	!	!	!	!	!	!	!	!	!	!	!	!	!	!	!	!	!	!	!	!	!	!	!
4r	.	.	.	4b	.	4dd	4bb)	.	.	8aaaL 8aaaa	.	.	.	.	.	.	.	.	.	.	.	.	.	.	.	.	.	.	.	.	.	.	.	.	.	.	.	.	.	4bb)	.	8aa	.
.	.	.	.	.	.	.	.	.	4AA^ 4A	16aaaL 16aaaa	.	.	.	.	.	.	.	.	.	.	.	.	.	.	.	.	.	.	.	.	.	.	.	.	.	.	.	.	.	.	.	8r	.
.	.	.	.	.	.	.	.	.	.	16aaaJJ 16aaaa	.	.	.	.	.	.	.	.	.	.	.	.	.	.	.	.	.	.	.	.	.	.	.	.	.	.	.	.	.	.	.	.	.
4.D	f	4.d	[	4.dd	[	4.a	4.ff#X	[	.	8aaaL 8aaaa	.	.	.	.	8r	.	8r	.	.	4.A 4.d	4.D	[	4.dd	[	4.a	4.A	4.cc#X	4.e	[	4.D	4.d	[	4.d	4.cc	[	4.ff#X	4.a	[	.	4.ff#X	[	8r	.
.	.	.	.	.	.	.	.	.	4AAA 4AA	16aaaL 16aaaa	.	.	.	.	16xLL	f	16xLL	f	.	.	.	.	.	.	.	.	.	.	.	.	.	.	.	.	.	.	.	.	.	.	.	16aaaLL	.
.	.	.	.	.	.	.	.	.	.	16aaaJJ 16aaaa	.	.	.	.	16xJJ	.	16xJJ	.	.	.	.	.	.	.	.	.	.	.	.	.	.	.	.	.	.	.	.	.	.	.	.	16aaaJJ	.
.	.	.	.	.	.	.	.	.	.	8aaaL 8aaaa	.	.	.	.	8xL	.	8xL	.	.	.	.	.	.	.	.	.	.	.	.	.	.	.	.	.	.	.	.	.	.	.	.	8aaaL	.
*	*	*clefF4	*	*	*	*	*	*	*	*	*	*	*	*	*	*	*	*	*	*	*	*	*	*	*	*	*	*	*	*	*	*	*	*	*	*	*	*	*	*	*	*	*
8r	.	8D	f	8r	.	8dd	(>8d 8dd 8ddd	f	8AA 8A	16aaaL 16aaaa	.	.	.	.	16xL	.	16xL	.	.	8r	8r	.	8r	.	8r	8r	8r	8r	.	[8D	[8D	f	8r	8r	.	8r	8r	.	.	8r	.	16aaaL	.
*	*	*	*	*	*	*	*	*	*X8va	*	*	*	*	*	*	*	*	*	*	*	*	*	*	*	*	*	*	*	*	*	*	*	*	*	*	*	*	*	*	*	*	*	*
.	.	.	.	.	.	.	.	.	.	16aaaJJ 16aaaa	.	.	.	.	16xJJ	.	16xJJ	.	.	.	.	.	.	.	.	.	.	.	.	.	.	.	.	.	.	.	.	.	.	.	.	16aaaJJ	.
*	*	*	*	*	*	*	*	*	*	*	*	*	*	*	*	*	*	*	*	*	*	*	*	*	*v	*v	*	*	*	*	*	*	*	*	*	*v	*v	*	*	*	*	*	*
*	*	*	*	*	*	*	*	*	*	*	*	*	*	*	*	*	*	*	*	*v	*v	*	*	*	*	*v	*v	*	*	*	*	*	*	*	*	*	*	*	*	*	*
*	*	*	*	*	*	*	*	*	*clefG2	*	*	*	*	*	*	*	*	*	*	*	*	*	*	*	*	*	*	*	*	*	*	*	*	*	*	*	*	*	*
==	==	==	==	==	==	==	==	==	==	==	==	==	==	==	==	==	==	==	==	==	==	==	==	==	==	==	==	==	==	==	==	==	==	==	==	==	==	==	==
*-	*-	*-	*-	*-	*-	*-	*-	*-	*-	*-	*-	*-	*-	*-	*-	*-	*-	*-	*-	*-	*-	*-	*-	*-	*-	*-	*-	*-	*-	*-	*-	*-	*-	*-	*-	*-	*-	*-	*-
!!!CDT: 1890/12/08-1959/08/28
!!!CBL: Polička, Bohemia
!!!CDL: Liestal, Switzerland
!!!CNT: Czech
!!!AGN: Orchestral; Concerto
!!!MCN: Stokowski, Leopold
!!!MDT: 1956/10/04
!!!MGN: New York Philharmonic Orchestra
!!!MLC: New York, New York, United States of America
!!!MPD: 1956
!!!MPN: Firkušny, Rudolf
!!!ODT: 1956
!!!PDT: 1965
!!!excerpt-start-measure: 44
!!!excerpt-end-measure: 48
!!!excerpt-start-time: 1:53
!!!excerpt-end-time: 2:04
!!!EEV: 2020/01/17
!!!system-decoration: [(s1[({(s2,s3)})]s4[({(s5,s6)})][({(s7,s8)})])][([({(s9,s10)})]s11,s12)][(s13)][(s14,s15)][({(s16,s17)})][({(s18,s19)})][([({(s20,s21)})]s22,s23,s24)]
!!!RDF**kern: > = above
!!!RDF**kern: < = below
!!!ONB: Converted from MusicXML on 2020/01/17
